;FLAVOR:Marlin
;TIME:7403
;Filament used: 5.27121m
;Layer height: 0.2
;MINX:60.673
;MINY:101.832
;MINZ:0.25
;MAXX:174.448
;MAXY:154.741
;MAXZ:26.65
;Generated with Cura_SteamEngine 4.8.0
M140 S60
M105
M190 S60
M104 S205
M105
M109 S205
M82 ;absolute extrusion mode
; Script based on an original created by tjjfvi (https://github.com/tjjfvi)
; An up-to-date version of the tjjfvi's original script can be found
; here:  https://csi.t6.fyi/
; Note - This script will only work in Cura V4.2 and above!
; --- Global Settings
; layer_height = 0.2
; smooth_spiralized_contours = True
; magic_mesh_surface_mode = normal
; machine_extruder_count = 1
; --- Single Extruder Settings
; speed_z_hop = 10
; retraction_amount = 5
; retraction_hop = 0.25
; retraction_hop_enabled = False
; retraction_enable = True
; retraction_speed = 45
; retraction_retract_speed = 45
; retraction_prime_speed = 45
; speed_travel = 70

G28 ;home
G92 E0 ;Reset Extruder
G1 Z4.0 F3000 ;Move Z Axis up
G92 E0 ;Reset Extruder
G1 X1.1 Y20 Z0.28 F5000.0 ;Move to start position
G1 X1.1 Y80.0 Z0.28 F1500.0 E10 ;Draw the first line
G1 X1.4 Y80.0 Z0.28 F5000.0 ;Move to side a little
G1 X1.4 Y20 Z0.28 F1500.0 E20 ;Draw the second line
G92 E0 ;Reset Extruder
G1 Z2.0 F3000 ;Move Z Axis up
G92 E0
G92 E0
G1 F2700 E-5
;LAYER_COUNT:134
;LAYER:0
M107
G0 F2100 X67.499 Y104.56 Z0.25
;TYPE:SKIRT
G1 F2700 E0
G1 F1500 X67.711 Y104.434 E0.01025
G1 X68.165 Y104.211 E0.03128
G1 X68.671 Y104.057 E0.05327
G1 X69.424 Y103.927 E0.08504
G1 X69.631 Y103.915 E0.09366
G1 X70.212 Y103.896 E0.11783
G1 X127.41 Y102.626 E2.49643
G1 X130.754 Y102.55 E2.6355
G1 X162.916 Y101.837 E3.97296
G1 X163.526 Y101.832 E3.99833
G1 X164.403 Y101.921 E4.03498
G1 X164.897 Y102.031 E4.05602
G1 X165.498 Y102.286 E4.08316
G1 X165.86 Y102.496 E4.10056
G1 X166.273 Y102.786 E4.12154
G1 X166.636 Y103.139 E4.14259
G1 X166.955 Y103.571 E4.16492
G1 X167.221 Y104.016 E4.18647
G1 X167.439 Y104.472 E4.20748
G1 X167.583 Y104.957 E4.22852
G1 X167.66 Y105.545 E4.25317
G1 X167.674 Y105.743 E4.26143
G1 X167.699 Y106.44 E4.29042
G1 X167.789 Y110.397 E4.45498
G1 X167.843 Y112.898 E4.55898
G1 X167.947 Y117.503 E4.75048
G1 X168.001 Y120.024 E4.85532
G1 X168.106 Y124.65 E5.0477
G1 X168.16 Y127.151 E5.1517
G1 X168.264 Y131.777 E5.34407
G1 X168.318 Y134.278 E5.44808
G1 X168.422 Y138.882 E5.63954
G1 X168.476 Y141.403 E5.74437
G1 X168.581 Y146.026 E5.93663
G1 X168.621 Y147.901 E6.0146
G1 X168.626 Y148.522 E6.04042
G1 X168.565 Y149.169 E6.06743
G1 X168.48 Y149.599 E6.08566
G1 X168.343 Y150.085 E6.10665
G1 X168.028 Y150.715 E6.13593
G1 X167.911 Y150.896 E6.14489
G1 X167.604 Y151.298 E6.16592
G1 X167.269 Y151.63 E6.18553
G1 X166.876 Y151.948 E6.20655
G1 X166.438 Y152.2 E6.22756
G1 X165.857 Y152.42 E6.25339
G1 X165.553 Y152.512 E6.26659
G1 X165.059 Y152.62 E6.28762
G1 X164.752 Y152.647 E6.30043
G1 X163.885 Y152.68 E6.3365
G1 X150.158 Y152.984 E6.90734
G1 X146.812 Y153.06 E7.04649
G1 X113.97 Y153.787 E8.41224
G1 X110.689 Y153.862 E8.54868
G1 X92.327 Y154.268 E9.31227
G1 X89.043 Y154.343 E9.44884
G1 X71.374 Y154.735 E10.18361
G1 X70.62 Y154.741 E10.21496
G1 X70.116 Y154.705 E10.23597
G1 X69.507 Y154.559 E10.262
G1 X69.21 Y154.466 E10.27494
G1 X68.743 Y154.275 E10.29592
G1 X68.311 Y154.012 E10.31695
G1 X67.865 Y153.626 E10.34147
G1 X67.518 Y153.25 E10.36274
G1 X67.212 Y152.848 E10.38375
G1 X66.972 Y152.403 E10.40477
G1 X66.721 Y151.633 E10.43844
G1 X66.602 Y150.887 E10.46984
G1 X66.561 Y149.873 E10.51204
G1 X66.478 Y146.179 E10.66565
G1 X66.422 Y143.568 E10.77423
G1 X66.156 Y131.699 E11.26781
G1 X66.105 Y129.314 E11.36699
G1 X66.003 Y124.795 E11.55492
G1 X65.947 Y122.186 E11.66341
G1 X65.686 Y110.535 E12.14792
G1 X65.645 Y108.623 E12.22743
G1 X65.643 Y108.105 E12.24897
G1 X65.654 Y107.659 E12.26752
G1 X65.706 Y107.156 E12.28854
G1 X65.837 Y106.668 E12.30955
G1 X66.072 Y106.151 E12.33316
G1 X66.311 Y105.736 E12.35307
G1 X66.6 Y105.322 E12.37406
G1 X66.951 Y104.958 E12.39508
G1 X67.499 Y104.56 E12.42324
G1 F2700 E7.42324
;MESH:Control Enclosure.stl
G0 F2100 X87.36 Y127.049
G0 X85.803 Y126.02
G0 X85.713 Y129.217
G0 X86.062 Y130.648
G0 X86.546 Y131.496
G0 X87.198 Y132.211
G0 X88.446 Y132.992
G0 X91.478 Y133.711
;TYPE:WALL-INNER
G1 F2700 E12.42324
G1 F1200 X92.5 Y133.301 E12.46902
G1 X93.408 Y132.678 E12.51481
G1 X94.157 Y131.872 E12.56055
G1 X94.715 Y130.922 E12.60636
G1 X95.04 Y129.899 E12.65098
G1 X95.127 Y129.297 E12.67627
G1 X95.102 Y128.225 E12.72085
G1 X94.839 Y127.155 E12.76666
G1 X94.345 Y126.169 E12.81251
G1 X93.65 Y125.317 E12.85822
G1 X92.785 Y124.634 E12.90404
G1 X91.791 Y124.16 E12.94983
G1 X90.716 Y123.912 E12.9957
G1 X89.616 Y123.908 E13.04143
G1 X88.54 Y124.143 E13.08722
G1 X87.542 Y124.607 E13.13298
G1 X86.668 Y125.279 E13.17881
G1 X85.963 Y126.125 E13.2246
G1 X85.462 Y127.105 E13.27035
G1 X85.198 Y128.128 E13.31428
G1 X85.186 Y128.172 E13.31618
G1 X85.15 Y129.247 E13.36089
G1 X85.236 Y129.876 E13.38729
G1 X85.545 Y130.873 E13.43068
G1 X86.091 Y131.829 E13.47645
G1 X86.815 Y132.625 E13.52119
G1 X87.316 Y133.014 E13.54756
G1 X88.232 Y133.514 E13.59095
G1 X89.291 Y133.82 E13.63678
G1 X90.389 Y133.886 E13.68251
G1 X91.478 Y133.711 E13.72837
G0 F2100 X91.37 Y133.323
G1 F1200 X92.31 Y132.946 E13.77047
G1 X93.145 Y132.373 E13.81257
G1 X93.834 Y131.632 E13.85464
G1 X94.347 Y130.758 E13.89678
G1 X94.649 Y129.809 E13.93818
G1 X94.726 Y129.273 E13.96069
G1 X94.703 Y128.278 E14.00207
G1 X94.461 Y127.294 E14.0442
G1 X94.007 Y126.388 E14.08633
G1 X93.368 Y125.604 E14.12838
G1 X92.572 Y124.976 E14.17054
G1 X91.658 Y124.54 E14.21264
G1 X90.67 Y124.312 E14.25479
G1 X89.658 Y124.308 E14.29687
G1 X88.669 Y124.524 E14.33895
G1 X87.751 Y124.951 E14.38105
G1 X86.947 Y125.569 E14.42321
G1 X86.299 Y126.347 E14.4653
G1 X85.838 Y127.248 E14.50738
G1 X85.584 Y128.229 E14.54951
G1 X85.551 Y129.226 E14.59098
G1 X85.628 Y129.789 E14.61461
G1 X85.914 Y130.713 E14.65482
G1 X86.416 Y131.592 E14.69691
G1 X87.088 Y132.33 E14.7384
G1 X87.536 Y132.678 E14.76199
G1 X88.385 Y133.142 E14.80221
G1 X89.359 Y133.423 E14.84436
G1 X90.369 Y133.484 E14.88643
G1 X91.37 Y133.323 E14.92858
G0 F2100 X91.262 Y132.935
;TYPE:WALL-OUTER
G1 F1200 X92.12 Y132.591 E14.96701
G1 X92.882 Y132.068 E15.00543
G1 X93.511 Y131.392 E15.04382
G1 X93.979 Y130.594 E15.08228
G1 X94.258 Y129.719 E15.12047
G1 X94.325 Y129.249 E15.14021
G1 X94.304 Y128.331 E15.17838
G1 X94.083 Y127.433 E15.21683
G1 X93.669 Y126.607 E15.25524
G1 X93.086 Y125.891 E15.29363
G1 X92.359 Y125.318 E15.33212
G1 X91.525 Y124.92 E15.37054
G1 X90.624 Y124.712 E15.40898
G1 X89.7 Y124.708 E15.4474
G1 X88.798 Y124.905 E15.48578
G1 X87.96 Y125.295 E15.52421
G1 X87.226 Y125.859 E15.56269
G1 X86.635 Y126.569 E15.6011
G1 X86.214 Y127.391 E15.6395
G1 X85.982 Y128.286 E15.67794
G1 X85.952 Y129.205 E15.71616
G1 X86.02 Y129.702 E15.73702
G1 X86.283 Y130.553 E15.77405
G1 X86.741 Y131.355 E15.81245
G1 X87.361 Y132.035 E15.85071
G1 X87.756 Y132.343 E15.87153
G1 X88.538 Y132.77 E15.90857
G1 X89.427 Y133.026 E15.94704
G1 X90.349 Y133.082 E15.98544
G1 X91.262 Y132.935 E16.02389
G0 F2100 X91.447 Y132.861
G0 X91.609 Y133.269
G1 F2700 E11.02389
G0 F2100 X93.533 Y132.823
G0 X92.312 Y131.411
G0 X119.386 Y132.25
G0 X117.513 Y132.291
G0 X117.912 Y140.824
;TYPE:WALL-INNER
G1 F2700 E16.02389
G1 F1200 X117.916 Y141.022 E16.03212
G1 X118.114 Y141.018 E16.03744
G1 X154.907 Y140.2 E17.56749
G1 X154.345 Y114.904 E18.61944
G1 X154.341 Y114.706 E18.62767
G1 X154.143 Y114.71 E18.633
G1 X117.35 Y115.528 E20.16305
G1 X117.912 Y140.824 E21.21499
G0 F2100 X118.307 Y140.613
G1 F1200 X118.505 Y140.609 E21.22323
G1 X154.498 Y139.809 E22.72001
G1 X153.954 Y115.313 E23.73869
G1 X153.95 Y115.115 E23.74692
G1 X153.752 Y115.119 E23.75225
G1 X117.759 Y115.919 E25.24903
G1 X118.303 Y140.415 E26.26771
G1 X118.307 Y140.613 E26.27303
G0 F2100 X118.698 Y140.204
;TYPE:WALL-OUTER
G1 F1200 X154.089 Y139.418 E27.74478
G1 X153.559 Y115.524 E28.73842
G1 X118.168 Y116.31 E30.21017
G1 X118.698 Y140.204 E31.20381
G0 F2100 X118.897 Y140.2
G0 X118.905 Y140.639
G1 F2700 E26.20381
G0 F2100 X117.703 Y139.101
G0 X119.537 Y139.06
G0 X117.943 Y151.163
G0 X117.902 Y149.29
G0 X113.991 Y149.586
;TYPE:WALL-INNER
G1 F2700 E31.20381
G1 F1200 X110.649 Y149.662 E31.34279
G1 X92.304 Y150.068 E32.10567
G1 X88.962 Y150.144 E32.24465
G1 X70.778 Y150.548 E33.00084
G1 X70.677 Y146.087 E33.18636
G1 X70.623 Y143.579 E33.29065
G1 X70.519 Y138.961 E33.4827
G1 X70.465 Y136.452 E33.58703
G1 X70.36 Y131.834 E33.77908
G1 X70.306 Y129.326 E33.88337
G1 X70.202 Y124.708 E34.07541
G1 X70.148 Y122.199 E34.17975
G1 X70.044 Y117.581 E34.37179
G1 X69.99 Y115.073 E34.47609
G1 X69.885 Y110.455 E34.66813
G1 X69.834 Y108.106 E34.76581
G1 X127.505 Y106.825 E37.16409
G1 X130.847 Y106.749 E37.30307
G1 X141.963 Y106.504 E37.76533
G1 X145.305 Y106.428 E37.90431
G1 X163.488 Y106.025 E38.66046
G1 X163.59 Y110.485 E38.84593
G1 X163.644 Y112.993 E38.95022
G1 X163.748 Y117.611 E39.14227
G1 X163.802 Y120.12 E39.2466
G1 X163.907 Y124.738 E39.43865
G1 X163.961 Y127.246 E39.54294
G1 X164.065 Y131.864 E39.73498
G1 X164.119 Y134.373 E39.83932
G1 X164.223 Y138.991 E40.03136
G1 X164.277 Y141.499 E40.13566
G1 X164.382 Y146.117 E40.3277
G1 X164.433 Y148.467 E40.42543
G1 X150.136 Y148.783 E41.01997
G1 X146.794 Y148.859 E41.15895
G1 X135.678 Y149.104 E41.62121
G1 X132.336 Y149.18 E41.76019
G1 X113.991 Y149.586 E42.52308
G0 F2100 X114 Y149.986
G1 F1200 X110.658 Y150.062 E42.66206
G1 X92.313 Y150.468 E43.42494
G1 X88.971 Y150.544 E43.56392
G1 X70.677 Y150.95 E44.32468
G1 X70.507 Y150.899 E44.33206
G1 X70.423 Y150.808 E44.33721
G1 X70.38 Y150.645 E44.34422
G1 X70.277 Y146.096 E44.53339
G1 X70.223 Y143.588 E44.63769
G1 X70.119 Y138.97 E44.82973
G1 X70.065 Y136.461 E44.93407
G1 X69.96 Y131.843 E45.12611
G1 X69.906 Y129.335 E45.23041
G1 X69.802 Y124.717 E45.42245
G1 X69.748 Y122.208 E45.52679
G1 X69.644 Y117.59 E45.71883
G1 X69.59 Y115.082 E45.82312
G1 X69.485 Y110.464 E46.01517
G1 X69.431 Y107.987 E46.11817
G1 X69.511 Y107.776 E46.12756
G1 X69.72 Y107.708 E46.13669
G1 X127.496 Y106.425 E48.53933
G1 X130.838 Y106.349 E48.67831
G1 X141.954 Y106.104 E49.14057
G1 X145.296 Y106.028 E49.27955
G1 X163.589 Y105.623 E50.04027
G1 X163.803 Y105.684 E50.04953
G1 X163.885 Y105.869 E50.05794
G1 X163.99 Y110.476 E50.24953
G1 X164.044 Y112.984 E50.35382
G1 X164.148 Y117.602 E50.54586
G1 X164.202 Y120.111 E50.6502
G1 X164.307 Y124.729 E50.84224
G1 X164.361 Y127.237 E50.94654
G1 X164.465 Y131.855 E51.13858
G1 X164.519 Y134.364 E51.24292
G1 X164.623 Y138.982 E51.43496
G1 X164.677 Y141.49 E51.53925
G1 X164.782 Y146.108 E51.7313
G1 X164.835 Y148.547 E51.83272
G1 X164.796 Y148.721 E51.84014
G1 X164.734 Y148.796 E51.84418
G1 X164.517 Y148.865 E51.85365
G1 X150.145 Y149.183 E52.45131
G1 X146.803 Y149.259 E52.59029
G1 X135.687 Y149.504 E53.05256
G1 X132.345 Y149.58 E53.19154
G1 X114 Y149.986 E53.95442
G0 F2100 X114.009 Y150.386
;TYPE:WALL-OUTER
G1 F1200 X110.667 Y150.462 E54.0934
G1 X92.322 Y150.868 E54.85628
G1 X88.98 Y150.944 E54.99526
G1 X70.625 Y151.351 E55.75856
G1 X70.288 Y151.251 E55.77318
G1 X70.061 Y151.006 E55.78706
G1 X69.981 Y150.702 E55.80013
G1 X69.877 Y146.105 E55.9913
G1 X69.823 Y143.597 E56.0956
G1 X69.719 Y138.979 E56.28764
G1 X69.665 Y136.47 E56.39198
G1 X69.56 Y131.852 E56.58402
G1 X69.506 Y129.344 E56.68832
G1 X69.402 Y124.726 E56.88036
G1 X69.348 Y122.217 E56.98469
G1 X69.244 Y117.599 E57.17674
G1 X69.19 Y115.091 E57.28103
G1 X69.085 Y110.473 E57.47308
G1 X69.031 Y107.978 E57.57683
G1 X69.039 Y107.797 E57.58436
G1 X69.213 Y107.49 E57.59903
G1 X69.415 Y107.365 E57.60891
G1 X69.672 Y107.309 E57.61985
G1 X127.487 Y106.025 E60.02411
G1 X130.829 Y105.949 E60.16309
G1 X141.945 Y105.704 E60.62535
G1 X145.287 Y105.628 E60.76433
G1 X163.617 Y105.222 E61.52659
G1 X163.875 Y105.264 E61.53746
G1 X164.095 Y105.391 E61.54802
G1 X164.273 Y105.69 E61.56248
G1 X164.285 Y105.849 E61.56911
G1 X164.39 Y110.467 E61.76116
G1 X164.444 Y112.975 E61.86545
G1 X164.548 Y117.593 E62.05749
G1 X164.602 Y120.102 E62.16183
G1 X164.707 Y124.72 E62.35387
G1 X164.761 Y127.228 E62.45817
G1 X164.865 Y131.846 E62.65021
G1 X164.919 Y134.355 E62.75455
G1 X165.023 Y138.973 E62.94659
G1 X165.077 Y141.481 E63.05089
G1 X165.182 Y146.099 E63.24293
G1 X165.236 Y148.585 E63.34631
G1 X165.165 Y148.904 E63.3599
G1 X164.968 Y149.141 E63.37271
G1 X164.582 Y149.264 E63.38955
G1 X150.154 Y149.583 E63.98955
G1 X146.812 Y149.659 E64.12853
G1 X135.696 Y149.904 E64.59079
G1 X132.354 Y149.98 E64.72977
G1 X114.009 Y150.386 E65.49265
G0 F2100 X113.809 Y150.39
G0 X113.8 Y149.95
G0 X113.983 Y149.196
;TYPE:SKIN
G1 F1200 X110.641 Y149.272 E65.63163
G1 X92.296 Y149.678 E66.39451
G1 X71.159 Y150.15 E67.27351
G1 X71.067 Y146.078 E67.44285
G1 X71.013 Y143.57 E67.54714
G1 X70.909 Y138.952 E67.73918
G1 X70.855 Y136.443 E67.84352
G1 X70.75 Y131.825 E68.03556
G1 X70.696 Y129.317 E68.13986
G1 X70.592 Y124.699 E68.3319
G1 X70.538 Y122.19 E68.43624
G1 X70.434 Y117.572 E68.62828
G1 X70.38 Y115.064 E68.73257
G1 X70.232 Y108.488 E69.00604
G1 X127.513 Y107.215 E71.3881
G1 X130.855 Y107.139 E71.52708
G1 X141.971 Y106.894 E71.98934
G1 X145.313 Y106.818 E72.12832
G1 X163.107 Y106.423 E72.86829
G1 X163.2 Y110.494 E73.03759
G1 X163.254 Y113.002 E73.14188
G1 X163.358 Y117.62 E73.33392
G1 X163.412 Y120.129 E73.43826
G1 X163.517 Y124.747 E73.6303
G1 X163.571 Y127.255 E73.7346
G1 X163.675 Y131.873 E73.92664
G1 X163.729 Y134.382 E74.03098
G1 X163.833 Y139 E74.22302
G1 X163.887 Y141.508 E74.32732
G1 X164.035 Y148.085 E74.60082
G1 X150.128 Y148.393 E75.17915
G1 X146.786 Y148.469 E75.31813
G1 X135.67 Y148.714 E75.78039
G1 X132.328 Y148.79 E75.91937
G1 X113.983 Y149.196 E76.68226
G1 F2700 E71.68226
G0 F2100 X113.987 Y149.477
G0 X117.988 Y149.288
G0 X118.029 Y151.161
G0 X119.537 Y139.06
G0 X117.703 Y139.101
G0 X117.809 Y141.165
G0 X117.534 Y141.42
G1 F2700 E76.68226
G1 F1200 X155.305 Y140.582 E78.25298
G1 X154.723 Y114.308 E79.34559
G1 X116.952 Y115.146 E80.91632
G1 X117.534 Y141.42 E82.00893
G1 F2700 E77.00893
G0 F2100 X117.809 Y141.165
G0 X117.493 Y131.422
G0 X119.366 Y131.381
G0 X93.183 Y130.243
G0 X94.89 Y131
G0 X94.246 Y131.938
G0 X94.471 Y132.106
G1 F2700 E82.00893
G1 F1200 X95.074 Y131.082 E82.05834
G1 X95.422 Y129.987 E82.1061
G1 X95.517 Y129.32 E82.13411
G1 X95.49 Y128.173 E82.18181
G1 X95.207 Y127.019 E82.23121
G1 X94.674 Y125.956 E82.28065
G1 X93.925 Y125.038 E82.32991
G1 X92.992 Y124.301 E82.37934
G1 X91.92 Y123.79 E82.42872
G1 X90.761 Y123.522 E82.47817
G1 X89.575 Y123.518 E82.52748
G1 X88.415 Y123.771 E82.57684
G1 X87.339 Y124.272 E82.62619
G1 X86.397 Y124.996 E82.67558
G1 X85.635 Y125.909 E82.72502
G1 X85.095 Y126.966 E82.77437
G1 X84.798 Y128.116 E82.82375
G1 X84.76 Y129.267 E82.87163
G1 X84.854 Y129.96 E82.90071
G1 X85.185 Y131.029 E82.94723
G1 X85.773 Y132.059 E82.99654
G1 X86.549 Y132.912 E83.04448
G1 X87.101 Y133.341 E83.07355
G1 X88.082 Y133.877 E83.12003
G1 X89.225 Y134.206 E83.16948
G1 X90.408 Y134.278 E83.21875
G1 X91.583 Y134.089 E83.26823
G1 X92.685 Y133.646 E83.31761
G1 X93.664 Y132.975 E83.36695
G1 X94.471 Y132.106 E83.41626
G1 F2700 E78.41626
G0 F2100 X94.246 Y131.938
G0 X90.399 Y134.078
G0 X90.308 Y132.214
G0 X88.999 Y151.808
G0 X88.957 Y149.934
G0 X71.897 Y150.412
G0 X71.888 Y149.952
G1 F2700 E83.41626
G1 F1200 X71.32 Y149.384 E83.44965
G0 F2100 X71.307 Y148.806
G1 F1200 X72.441 Y149.94 E83.51633
G0 F2100 X72.994 Y149.927
G1 F1200 X71.294 Y148.227 E83.61628
G0 F2100 X71.282 Y147.649
G1 F1200 X73.548 Y149.915 E83.74951
G0 F2100 X74.101 Y149.903
G1 F1200 X71.269 Y147.071 E83.91602
G0 F2100 X71.256 Y146.492
G1 F1200 X74.654 Y149.891 E84.11584
G0 F2100 X75.207 Y149.878
G1 F1200 X71.243 Y145.914 E84.34891
G0 F2100 X71.231 Y145.335
G1 F1200 X75.761 Y149.866 E84.61529
G0 F2100 X76.314 Y149.853
G1 F1200 X71.218 Y144.757 E84.91491
G0 F2100 X71.205 Y144.179
G1 F1200 X76.868 Y149.841 E85.24785
G0 F2100 X77.421 Y149.828
G1 F1200 X71.193 Y143.601 E85.614
G0 F2100 X71.18 Y143.022
G1 F1200 X77.974 Y149.816 E86.01346
G0 F2100 X78.527 Y149.804
G1 F1200 X71.167 Y142.443 E86.44623
G0 F2100 X71.154 Y141.864
G1 F1200 X79.081 Y149.792 E86.91234
G0 F2100 X79.634 Y149.779
G1 F1200 X71.141 Y141.286 E87.41169
