;FLAVOR:Marlin
;TIME:26052
;Filament used: 29.1753m
;Layer height: 0.3
;MINX:22.2
;MINY:14.3
;MINZ:0.25
;MAXX:212.8
;MAXY:220.7
;MAXZ:4.75
;Generated with Cura_SteamEngine 4.8.0
M140 S60
M105
M190 S60
M104 S205
M105
M109 S205
M82 ;absolute extrusion mode
; Script based on an original created by tjjfvi (https://github.com/tjjfvi)
; An up-to-date version of the tjjfvi's original script can be found
; here:  https://csi.t6.fyi/
; Note - This script will only work in Cura V4.2 and above!
; --- Global Settings
; layer_height = 0.3
; smooth_spiralized_contours = True
; magic_mesh_surface_mode = normal
; machine_extruder_count = 1
; --- Single Extruder Settings
; speed_z_hop = 10
; retraction_amount = 5
; retraction_hop = 0.25
; retraction_hop_enabled = False
; retraction_enable = True
; retraction_speed = 45
; retraction_retract_speed = 45
; retraction_prime_speed = 45
; speed_travel = 70

G28 ;home
G92 E0 ;Reset Extruder
G1 Z4.0 F3000 ;Move Z Axis up
G92 E0 ;Reset Extruder
G1 X1.1 Y20 Z0.28 F5000.0 ;Move to start position
G1 X1.1 Y80.0 Z0.28 F1500.0 E10 ;Draw the first line
G1 X1.4 Y80.0 Z0.28 F5000.0 ;Move to side a little
G1 X1.4 Y20 Z0.28 F1500.0 E20 ;Draw the second line
G92 E0 ;Reset Extruder
G1 Z2.0 F3000 ;Move Z Axis up
G92 E0
G92 E0
G1 F2700 E-5
;LAYER_COUNT:16
;LAYER:0
M107
G0 F2100 X25.072 Y19.303 Z0.25
;TYPE:SKIRT
G1 F2700 E0
G1 F1500 X25.135 Y19.225 E0.00417
G1 X25.509 Y18.778 E0.0284
G1 X25.937 Y18.314 E0.05464
G1 X26.472 Y17.794 E0.08566
G1 X26.874 Y17.438 E0.10799
G1 X27.045 Y17.298 E0.11717
G1 X27.537 Y16.911 E0.1432
G1 X28.113 Y16.51 E0.17238
G1 X28.686 Y16.149 E0.20053
G1 X29.162 Y15.881 E0.22325
G1 X29.33 Y15.794 E0.23111
G1 X29.918 Y15.505 E0.25835
G1 X30.614 Y15.214 E0.28971
G1 X31.204 Y14.997 E0.31585
G1 X31.762 Y14.825 E0.34013
G1 X31.901 Y14.787 E0.34612
G1 X32.543 Y14.626 E0.37364
G1 X33.135 Y14.51 E0.39872
G1 X33.273 Y14.488 E0.40453
G1 X33.904 Y14.398 E0.43102
G1 X34.5 Y14.345 E0.4559
G1 X34.638 Y14.337 E0.46165
G1 X35.438 Y14.307 E0.49493
G1 X36.007 Y14.3 E0.51859
G1 X194.745 Y14.3 E7.11815
G1 X195.568 Y14.312 E7.15237
G1 X196.1 Y14.334 E7.17451
G1 X196.652 Y14.372 E7.19751
G1 X197.329 Y14.456 E7.22587
G1 X197.991 Y14.568 E7.25379
G1 X198.506 Y14.684 E7.27573
G1 X198.745 Y14.746 E7.286
G1 X199.346 Y14.916 E7.31197
G1 X199.935 Y15.119 E7.33787
G1 X200.052 Y15.163 E7.34306
G1 X200.64 Y15.398 E7.36939
G1 X201.113 Y15.614 E7.39101
G1 X201.291 Y15.703 E7.39928
G1 X201.846 Y15.995 E7.42536
G1 X202.319 Y16.273 E7.44817
G1 X202.529 Y16.407 E7.45852
G1 X203.04 Y16.749 E7.48409
G1 X203.597 Y17.172 E7.51316
G1 X203.675 Y17.235 E7.51733
G1 X204.122 Y17.609 E7.54156
G1 X204.586 Y18.037 E7.56781
G1 X205.106 Y18.572 E7.59883
G1 X205.463 Y18.975 E7.62121
G1 X205.594 Y19.136 E7.62984
G1 X205.982 Y19.628 E7.65589
G1 X206.39 Y20.213 E7.68554
G1 X206.739 Y20.766 E7.71273
G1 X207.028 Y21.279 E7.73721
G1 X207.099 Y21.415 E7.74359
G1 X207.394 Y22.014 E7.77135
G1 X207.659 Y22.645 E7.7998
G1 X207.899 Y23.292 E7.82849
G1 X208.07 Y23.844 E7.85252
G1 X208.107 Y23.978 E7.8583
G1 X208.273 Y24.636 E7.88651
G1 X208.387 Y25.218 E7.91117
G1 X208.41 Y25.358 E7.91706
G1 X208.5 Y25.984 E7.94336
G1 X208.558 Y26.638 E7.97066
G1 X208.59 Y27.442 E8.00411
G1 X208.593 Y27.536 E8.00802
G1 X208.6 Y28.108 E8.0318
G1 X208.6 Y33.799 E8.26841
G1 X208.639 Y36.58 E8.38404
G1 X208.755 Y39.309 E8.4976
G1 X208.949 Y42.038 E8.61134
G1 X209.214 Y44.713 E8.7231
G1 X209.564 Y47.453 E8.83794
G1 X209.985 Y50.13 E8.95061
G1 X210.483 Y52.81 E9.06394
G1 X211.047 Y55.427 E9.17524
G1 X211.713 Y58.147 E9.29166
G1 X212.459 Y60.849 E9.4082
G1 X212.646 Y61.489 E9.43592
G1 X212.757 Y62.014 E9.45823
G1 X212.798 Y62.721 E9.48767
G1 X212.8 Y62.83 E9.49221
G1 X212.8 Y171.844 E14.02448
G1 X212.79 Y172.546 E14.05367
G1 X212.746 Y173.055 E14.07491
G1 X212.658 Y173.466 E14.09239
G1 X212.473 Y174.136 E14.12128
G1 X212.07 Y175.523 E14.18133
G1 X211.372 Y178.201 E14.29639
G1 X210.762 Y180.839 E14.40896
G1 X210.228 Y183.505 E14.522
G1 X209.771 Y186.173 E14.63454
G1 X209.383 Y188.89 E14.74864
G1 X209.075 Y191.598 E14.86196
G1 X208.843 Y194.319 E14.97549
G1 X208.689 Y197.014 E15.08772
G1 X208.609 Y199.811 E15.20405
G1 X208.6 Y201.175 E15.26076
G1 X208.6 Y206.845 E15.49649
G1 X208.588 Y207.668 E15.53071
G1 X208.566 Y208.201 E15.55289
G1 X208.528 Y208.751 E15.57581
G1 X208.444 Y209.426 E15.60409
G1 X208.332 Y210.091 E15.63213
G1 X208.216 Y210.606 E15.65408
G1 X208.154 Y210.845 E15.66434
G1 X207.986 Y211.439 E15.69001
G1 X207.783 Y212.031 E15.71603
G1 X207.739 Y212.147 E15.72119
G1 X207.505 Y212.735 E15.7475
G1 X207.28 Y213.225 E15.76991
G1 X207.192 Y213.399 E15.77802
G1 X206.89 Y213.974 E15.80502
G1 X206.566 Y214.516 E15.83128
G1 X206.492 Y214.632 E15.837
G1 X206.151 Y215.141 E15.86247
G1 X205.728 Y215.697 E15.89151
G1 X205.665 Y215.775 E15.89568
G1 X205.291 Y216.222 E15.91991
G1 X204.884 Y216.663 E15.94486
G1 X204.769 Y216.779 E15.95165
G1 X204.328 Y217.206 E15.97717
G1 X203.926 Y217.562 E15.9995
G1 X203.758 Y217.699 E16.00851
G1 X203.271 Y218.083 E16.0343
G1 X202.687 Y218.49 E16.06389
G1 X202.114 Y218.851 E16.09205
G1 X201.638 Y219.119 E16.11476
G1 X201.47 Y219.206 E16.12262
G1 X200.882 Y219.495 E16.14986
G1 X200.186 Y219.786 E16.18123
G1 X199.596 Y220.003 E16.20736
G1 X199.038 Y220.175 E16.23164
G1 X198.899 Y220.213 E16.23763
G1 X198.257 Y220.374 E16.26515
G1 X197.665 Y220.49 E16.29023
G1 X197.527 Y220.512 E16.29604
G1 X196.896 Y220.602 E16.32254
G1 X196.3 Y220.655 E16.34741
G1 X196.162 Y220.663 E16.35316
G1 X195.362 Y220.693 E16.38644
G1 X194.793 Y220.7 E16.4101
G1 X36.054 Y220.7 E23.0097
G1 X35.232 Y220.688 E23.04388
G1 X34.7 Y220.666 E23.06602
G1 X34.148 Y220.628 E23.08902
G1 X33.471 Y220.544 E23.11738
G1 X32.809 Y220.432 E23.1453
G1 X32.294 Y220.316 E23.16724
G1 X32.055 Y220.254 E23.17751
G1 X31.454 Y220.084 E23.20348
G1 X30.86 Y219.88 E23.22959
G1 X30.74 Y219.834 E23.23493
G1 X30.158 Y219.601 E23.261
G1 X29.674 Y219.38 E23.28312
G1 X29.498 Y219.291 E23.29132
G1 X28.945 Y219 E23.3173
G1 X28.478 Y218.725 E23.33983
G1 X28.263 Y218.588 E23.35043
G1 X27.757 Y218.249 E23.37575
G1 X27.203 Y217.828 E23.40468
G1 X27.125 Y217.765 E23.40885
G1 X26.678 Y217.391 E23.43308
G1 X26.3 Y217.044 E23.45441
G1 X26.121 Y216.869 E23.46482
G1 X25.688 Y216.422 E23.49069
G1 X25.34 Y216.029 E23.51252
G1 X25.197 Y215.853 E23.52194
G1 X24.814 Y215.366 E23.5477
G1 X24.397 Y214.767 E23.57805
G1 X24.048 Y214.213 E23.60527
G1 X23.779 Y213.734 E23.62811
G1 X23.691 Y213.564 E23.63607
G1 X23.405 Y212.982 E23.66303
G1 X23.137 Y212.345 E23.69176
G1 X22.897 Y211.695 E23.72057
G1 X22.725 Y211.138 E23.7448
G1 X22.687 Y210.999 E23.75079
G1 X22.526 Y210.357 E23.77831
G1 X22.41 Y209.769 E23.80323
G1 X22.387 Y209.622 E23.80941
G1 X22.298 Y208.994 E23.83578
G1 X22.243 Y208.364 E23.86208
G1 X22.236 Y208.236 E23.86741
G1 X22.207 Y207.464 E23.89952
G1 X22.2 Y206.892 E23.92331
G1 X22.2 Y28.154 E31.35437
G1 X22.212 Y27.332 E31.38855
G1 X22.234 Y26.8 E31.41068
G1 X22.272 Y26.248 E31.43369
G1 X22.36 Y25.548 E31.46302
G1 X22.467 Y24.915 E31.48971
G1 X22.614 Y24.277 E31.51693
G1 X22.646 Y24.155 E31.52217
G1 X22.814 Y23.561 E31.54784
G1 X23.017 Y22.969 E31.57386
G1 X23.297 Y22.262 E31.60547
G1 X23.52 Y21.775 E31.62774
G1 X23.608 Y21.601 E31.63585
G1 X23.9 Y21.045 E31.66196
G1 X24.166 Y20.592 E31.6838
G1 X24.311 Y20.364 E31.69503
G1 X24.657 Y19.849 E31.72083
G1 X25.072 Y19.303 E31.74934
G0 F2100 X25.386 Y19.551
G1 F1500 X25.816 Y19.035 E31.77726
G1 X26.226 Y18.591 E31.80239
G1 X26.309 Y18.508 E31.80727
G1 X26.75 Y18.081 E31.83279
G1 X27.128 Y17.747 E31.85376
G1 X27.293 Y17.613 E31.8626
G1 X27.785 Y17.226 E31.88862
G1 X28.334 Y16.843 E31.91646
G1 X28.899 Y16.487 E31.94422
G1 X29.348 Y16.235 E31.96563
G1 X29.506 Y16.153 E31.97303
G1 X30.094 Y15.864 E32.00027
G1 X30.691 Y15.613 E32.02719
G1 X31.342 Y15.373 E32.05604
G1 X31.875 Y15.209 E32.07922
G1 X31.999 Y15.175 E32.08457
G1 X32.641 Y15.014 E32.11208
G1 X33.207 Y14.904 E32.13606
G1 X33.329 Y14.884 E32.1412
G1 X33.96 Y14.794 E32.1677
G1 X34.531 Y14.743 E32.19153
G1 X34.654 Y14.736 E32.19665
G1 X35.443 Y14.707 E32.22948
G1 X36.012 Y14.7 E32.25313
G1 X194.74 Y14.7 E38.85228
G1 X195.639 Y14.714 E38.88966
G1 X196.073 Y14.733 E38.90772
G1 X196.625 Y14.771 E38.93072
G1 X197.271 Y14.852 E38.95779
G1 X197.923 Y14.963 E38.98529
G1 X198.556 Y15.109 E39.0123
G1 X199.237 Y15.301 E39.04171
G1 X199.8 Y15.495 E39.06647
G1 X200.492 Y15.77 E39.09743
G1 X201.034 Y16.021 E39.12226
G1 X201.66 Y16.349 E39.15164
G1 X202.106 Y16.611 E39.17315
G1 X202.307 Y16.74 E39.18308
G1 X202.818 Y17.082 E39.20864
G1 X203.349 Y17.486 E39.23638
G1 X203.865 Y17.916 E39.26431
G1 X204.309 Y18.326 E39.28943
G1 X204.392 Y18.409 E39.29431
G1 X204.819 Y18.85 E39.31983
G1 X205.154 Y19.229 E39.34086
G1 X205.28 Y19.383 E39.34914
G1 X205.668 Y19.875 E39.37519
G1 X206.057 Y20.434 E39.4035
G1 X206.401 Y20.979 E39.4303
G1 X206.677 Y21.471 E39.45375
G1 X206.74 Y21.592 E39.45942
G1 X207.035 Y22.191 E39.48718
G1 X207.287 Y22.791 E39.51424
G1 X207.524 Y23.43 E39.54257
G1 X207.686 Y23.957 E39.56549
G1 X207.719 Y24.076 E39.57063
G1 X207.885 Y24.734 E39.59884
G1 X207.994 Y25.291 E39.62244
G1 X208.014 Y25.415 E39.62766
G1 X208.104 Y26.041 E39.65395
G1 X208.159 Y26.665 E39.68
G1 X208.164 Y26.753 E39.68366
G1 X208.193 Y27.541 E39.71645
G1 X208.2 Y28.113 E39.74023
G1 X208.2 Y33.805 E39.97687
G1 X208.24 Y36.603 E40.09321
G1 X208.355 Y39.32 E40.20627
G1 X208.55 Y42.066 E40.32073
G1 X208.818 Y44.77 E40.4337
G1 X209.166 Y47.494 E40.54787
G1 X209.591 Y50.194 E40.6615
G1 X210.094 Y52.903 E40.77606
G1 X210.659 Y55.527 E40.88765
G1 X211.319 Y58.22 E41.00292
G1 X212.075 Y60.962 E41.12118
G1 X212.262 Y61.602 E41.1489
G1 X212.365 Y62.096 E41.16988
G1 X212.399 Y62.733 E41.1964
G1 X212.4 Y171.839 E45.7325
G1 X212.39 Y172.541 E45.76169
G1 X212.351 Y172.995 E45.78063
G1 X212.273 Y173.36 E45.79615
G1 X212.089 Y174.025 E45.82484
G1 X211.682 Y175.425 E45.88545
G1 X210.99 Y178.081 E45.99956
G1 X210.368 Y180.768 E46.11423
G1 X209.836 Y183.431 E46.22713
G1 X209.375 Y186.121 E46.3406
G1 X208.983 Y188.86 E46.45563
G1 X208.676 Y191.555 E46.5684
G1 X208.446 Y194.263 E46.68139
G1 X208.289 Y197.014 E46.79595
G1 X208.21 Y199.776 E46.91083
G1 X208.2 Y201.172 E46.96887
G1 X208.2 Y206.84 E47.20452
G1 X208.186 Y207.739 E47.2419
G1 X208.167 Y208.174 E47.26
G1 X208.129 Y208.724 E47.28292
G1 X208.048 Y209.368 E47.30991
G1 X207.937 Y210.023 E47.33753
G1 X207.791 Y210.656 E47.36454
G1 X207.601 Y211.33 E47.39365
G1 X207.406 Y211.896 E47.41854
G1 X207.367 Y211.999 E47.42312
G1 X207.133 Y212.587 E47.44943
G1 X206.922 Y213.046 E47.47043
G1 X206.838 Y213.213 E47.4782
G1 X206.536 Y213.788 E47.50521
G1 X206.226 Y214.306 E47.5303
G1 X206.16 Y214.409 E47.53539
G1 X205.819 Y214.918 E47.56086
G1 X205.414 Y215.449 E47.58863
G1 X204.984 Y215.965 E47.61655
G1 X204.593 Y216.388 E47.6405
G1 X204.491 Y216.492 E47.64656
G1 X204.05 Y216.919 E47.67208
G1 X203.672 Y217.253 E47.69305
G1 X203.51 Y217.385 E47.70174
G1 X203.023 Y217.769 E47.72752
G1 X202.466 Y218.157 E47.75574
G1 X201.901 Y218.513 E47.78351
G1 X201.452 Y218.765 E47.80491
G1 X201.294 Y218.847 E47.81231
G1 X200.706 Y219.136 E47.83955
G1 X200.109 Y219.387 E47.86648
G1 X199.458 Y219.627 E47.89532
G1 X198.925 Y219.791 E47.91851
G1 X198.801 Y219.825 E47.92385
G1 X198.159 Y219.986 E47.95137
G1 X197.593 Y220.096 E47.97534
G1 X197.471 Y220.116 E47.98048
G1 X196.84 Y220.206 E48.00698
G1 X196.269 Y220.257 E48.03082
G1 X196.146 Y220.264 E48.03594
G1 X195.357 Y220.293 E48.06876
G1 X194.788 Y220.3 E48.09242
G1 X36.06 Y220.3 E54.69157
G1 X35.162 Y220.286 E54.7289
G1 X34.727 Y220.267 E54.74701
G1 X34.175 Y220.229 E54.77001
G1 X33.529 Y220.148 E54.79708
G1 X32.877 Y220.037 E54.82458
G1 X32.244 Y219.891 E54.85158
G1 X31.563 Y219.699 E54.881
G1 X30.995 Y219.503 E54.90598
G1 X30.889 Y219.463 E54.91069
G1 X30.307 Y219.23 E54.93676
G1 X29.743 Y218.967 E54.96263
G1 X29.131 Y218.646 E54.99136
G1 X28.691 Y218.387 E55.01259
G1 X28.486 Y218.256 E55.0227
G1 X27.98 Y217.917 E55.04802
G1 X27.451 Y217.514 E55.07567
G1 X26.935 Y217.084 E55.1036
G1 X26.479 Y216.661 E55.12946
G1 X25.976 Y216.143 E55.15947
G1 X25.556 Y215.661 E55.18605
G1 X25.129 Y215.119 E55.21474
G1 X24.73 Y214.546 E55.24377
G1 X24.387 Y214 E55.27058
G1 X24.133 Y213.549 E55.2921
G1 X24.05 Y213.387 E55.29966
G1 X23.764 Y212.805 E55.32662
G1 X23.509 Y212.2 E55.35392
G1 X23.273 Y211.557 E55.3824
G1 X23.109 Y211.025 E55.40554
G1 X23.075 Y210.901 E55.41089
G1 X22.914 Y210.259 E55.43841
G1 X22.804 Y209.696 E55.46226
G1 X22.783 Y209.566 E55.46773
G1 X22.694 Y208.938 E55.4941
G1 X22.642 Y208.335 E55.51926
G1 X22.635 Y208.221 E55.52401
G1 X22.607 Y207.459 E55.55571
G1 X22.6 Y206.887 E55.5795
G1 X22.6 Y28.16 E63.0101
G1 X22.614 Y27.262 E63.04744
G1 X22.633 Y26.827 E63.06554
G1 X22.671 Y26.275 E63.08855
G1 X22.756 Y25.606 E63.11658
G1 X22.861 Y24.982 E63.14289
G1 X23.002 Y24.372 E63.16892
G1 X23.199 Y23.67 E63.19923
G1 X23.394 Y23.104 E63.22412
G1 X23.433 Y23 E63.22874
G1 X23.668 Y22.41 E63.25514
G1 X23.878 Y21.954 E63.27602
G1 X23.962 Y21.787 E63.28379
G1 X24.254 Y21.231 E63.3099
G1 X24.585 Y20.676 E63.33676
G1 X24.989 Y20.072 E63.36698
G1 X25.386 Y19.551 E63.39421
G1 F2700 E58.39421
;MESH:Board Mount.stl
G0 F2100 X34.448 Y26.719
G0 X33.01 Y25.537
G0 X33.101 Y27.931
G0 X33.387 Y28.691
G0 X33.917 Y29.307
G0 X36.424 Y30.216
;TYPE:WALL-INNER
G1 F2700 E63.39421
G1 F1200 X36.879 Y29.996 E63.41522
G1 X37.29 Y29.703 E63.4362
G1 X37.642 Y29.341 E63.4572
G1 X37.929 Y28.923 E63.47828
G1 X38.137 Y28.465 E63.49919
G1 X38.263 Y27.975 E63.52023
G1 X38.303 Y27.47 E63.54129
G1 X38.253 Y26.965 E63.56238
G1 X38.116 Y26.476 E63.5835
G1 X37.896 Y26.021 E63.60451
G1 X37.603 Y25.61 E63.62549
G1 X37.241 Y25.258 E63.64649
G1 X36.823 Y24.971 E63.66757
G1 X36.365 Y24.763 E63.68848
G1 X35.875 Y24.637 E63.70951
G1 X35.37 Y24.597 E63.73058
G1 X34.865 Y24.647 E63.75167
G1 X34.376 Y24.784 E63.77279
G1 X33.921 Y25.004 E63.7938
G1 X33.51 Y25.297 E63.81478
G1 X33.158 Y25.659 E63.83578
G1 X32.871 Y26.077 E63.85686
G1 X32.665 Y26.532 E63.87762
G1 X32.539 Y27 E63.89777
G1 X32.497 Y27.53 E63.91988
G1 X32.547 Y28.035 E63.94097
G1 X32.684 Y28.524 E63.96209
G1 X32.904 Y28.979 E63.9831
G1 X33.197 Y29.39 E64.00408
G1 X33.559 Y29.742 E64.02508
G1 X33.977 Y30.029 E64.04616
G1 X34.435 Y30.237 E64.06707
G1 X34.925 Y30.363 E64.0881
G1 X35.43 Y30.403 E64.10917
G1 X35.935 Y30.353 E64.13026
G1 X36.424 Y30.216 E64.15138
G0 F2100 X36.282 Y29.84
G1 F1200 X36.674 Y29.651 E64.16947
G1 X37.028 Y29.398 E64.18756
G1 X37.332 Y29.086 E64.20567
G1 X37.579 Y28.726 E64.22382
G1 X37.758 Y28.331 E64.24185
G1 X37.867 Y27.909 E64.25997
G1 X37.901 Y27.474 E64.27811
G1 X37.858 Y27.039 E64.29629
G1 X37.74 Y26.618 E64.31446
G1 X37.551 Y26.226 E64.33256
G1 X37.298 Y25.872 E64.35065
G1 X36.986 Y25.568 E64.36876
G1 X36.626 Y25.321 E64.38691
G1 X36.231 Y25.142 E64.40494
G1 X35.809 Y25.033 E64.42306
G1 X35.374 Y24.999 E64.4412
G1 X34.939 Y25.042 E64.45937
G1 X34.518 Y25.16 E64.47755
G1 X34.126 Y25.349 E64.49564
G1 X33.772 Y25.602 E64.51373
G1 X33.468 Y25.914 E64.53184
G1 X33.221 Y26.274 E64.54999
G1 X33.043 Y26.667 E64.56793
G1 X32.935 Y27.068 E64.5852
G1 X32.899 Y27.526 E64.6043
G1 X32.942 Y27.961 E64.62247
G1 X33.06 Y28.382 E64.64065
G1 X33.249 Y28.774 E64.65874
G1 X33.502 Y29.128 E64.67683
G1 X33.814 Y29.432 E64.69494
G1 X34.174 Y29.679 E64.71309
G1 X34.569 Y29.858 E64.73112
G1 X34.991 Y29.967 E64.74924
G1 X35.426 Y30.001 E64.76738
G1 X35.861 Y29.958 E64.78556
G1 X36.282 Y29.84 E64.80373
G0 F2100 X36.14 Y29.464
;TYPE:WALL-OUTER
G1 F1200 X36.469 Y29.306 E64.81891
G1 X36.766 Y29.093 E64.8341
G1 X37.022 Y28.831 E64.84933
G1 X37.229 Y28.529 E64.86455
G1 X37.379 Y28.197 E64.8797
G1 X37.471 Y27.843 E64.89491
G1 X37.499 Y27.478 E64.91013
G1 X37.463 Y27.113 E64.92538
G1 X37.364 Y26.76 E64.94062
G1 X37.206 Y26.431 E64.95579
G1 X36.993 Y26.134 E64.97099
G1 X36.731 Y25.878 E64.98622
G1 X36.429 Y25.671 E65.00144
G1 X36.097 Y25.521 E65.01658
G1 X35.743 Y25.429 E65.03179
G1 X35.378 Y25.401 E65.04701
G1 X35.013 Y25.437 E65.06226
G1 X34.66 Y25.536 E65.0775
G1 X34.331 Y25.694 E65.09267
G1 X34.034 Y25.907 E65.10787
G1 X33.778 Y26.169 E65.1231
G1 X33.571 Y26.471 E65.13832
