;FLAVOR:Marlin
;TIME:737
;Filament used: 0.461962m
;Layer height: 0.2
;MINX:92.899
;MINY:91.753
;MINZ:0.25
;MAXX:142.1
;MAXY:125.893
;MAXZ:5.7
;Generated with Cura_SteamEngine 4.8.0
M140 S60
M105
M190 S60
M104 S205
M105
M109 S205
M82 ;absolute extrusion mode
; Script based on an original created by tjjfvi (https://github.com/tjjfvi)
; An up-to-date version of the tjjfvi's original script can be found
; here:  https://csi.t6.fyi/
; Note - This script will only work in Cura V4.2 and above!
; --- Global Settings
; layer_height = 0.2
; smooth_spiralized_contours = True
; magic_mesh_surface_mode = normal
; machine_extruder_count = 1
; --- Single Extruder Settings
; speed_z_hop = 10
; retraction_amount = 5
; retraction_hop = 0.25
; retraction_hop_enabled = True
; retraction_enable = True
; retraction_speed = 45
; retraction_retract_speed = 45
; retraction_prime_speed = 45
; speed_travel = 70

G28 ;home
G92 E0 ;Reset Extruder
G1 Z4.0 F3000 ;Move Z Axis up
G92 E0 ;Reset Extruder
G1 X1.1 Y20 Z0.28 F5000.0 ;Move to start position
G1 X1.1 Y80.0 Z0.28 F1500.0 E10 ;Draw the first line
G1 X1.4 Y80.0 Z0.28 F5000.0 ;Move to side a little
G1 X1.4 Y20 Z0.28 F1500.0 E20 ;Draw the second line
G92 E0 ;Reset Extruder
G1 Z2.0 F3000 ;Move Z Axis up
G92 E0
G92 E0
G1 F2700 E-5
;LAYER_COUNT:27
;LAYER:0
M107
G1 F600 Z0.5
G0 F2100 X94.804 Y93.75 Z0.5
;TYPE:SKIRT
G1 F600 Z0.25
G1 F2700 E0
G1 F1500 X95.121 Y93.439 E0.01846
G1 X95.574 Y93.066 E0.04286
G1 X96.025 Y92.77 E0.06529
G1 X96.331 Y92.584 E0.08018
G1 X96.958 Y92.281 E0.10913
G1 X97.711 Y92.019 E0.14227
G1 X98.26 Y91.884 E0.16578
G1 X98.764 Y91.818 E0.18691
G1 X99.456 Y91.763 E0.21577
G1 X100.181 Y91.754 E0.24592
G1 X134.857 Y91.753 E1.68758
G1 X135.565 Y91.764 E1.71702
G1 X136.237 Y91.818 E1.74504
G1 X136.633 Y91.868 E1.76164
G1 X137.299 Y92.02 E1.79004
G1 X138.028 Y92.275 E1.82215
G1 X138.676 Y92.587 E1.85205
G1 X139.32 Y92.993 E1.8837
G1 X139.856 Y93.418 E1.91214
G1 X140.406 Y93.965 E1.94439
G1 X140.809 Y94.458 E1.97086
G1 X141.084 Y94.88 E1.9918
G1 X141.271 Y95.188 E2.00679
G1 X141.512 Y95.659 E2.02878
G1 X141.722 Y96.223 E2.0538
G1 X141.832 Y96.555 E2.06834
G1 X141.984 Y97.212 E2.09638
G1 X142.074 Y98.015 E2.12997
G1 X142.09 Y98.307 E2.14213
G1 X142.099 Y99.005 E2.17115
G1 X142.1 Y103.699 E2.36631
G1 X142.09 Y104.397 E2.39533
G1 X142.079 Y104.691 E2.40756
G1 X142 Y107.481 E2.5236
G1 X142 Y110.181 E2.63586
G1 X142.076 Y112.878 E2.74803
G1 X142.09 Y113.25 E2.76351
G1 X142.099 Y113.977 E2.79373
G1 X142.1 Y118.603 E2.98606
G1 X142.09 Y119.348 E3.01704
G1 X142.041 Y119.978 E3.04331
G1 X141.986 Y120.414 E3.06158
G1 X141.835 Y121.082 E3.09005
G1 X141.578 Y121.818 E3.12246
G1 X141.277 Y122.449 E3.15153
G1 X140.883 Y123.079 E3.18242
G1 X140.383 Y123.706 E3.21576
G1 X139.883 Y124.203 E3.24507
G1 X139.426 Y124.58 E3.2697
G1 X138.996 Y124.863 E3.2911
G1 X138.679 Y125.057 E3.30656
G1 X138.04 Y125.366 E3.33607
G1 X137.285 Y125.628 E3.36929
G1 X136.739 Y125.762 E3.39266
G1 X136.235 Y125.828 E3.4138
G1 X135.543 Y125.883 E3.44266
G1 X134.819 Y125.892 E3.47276
G1 X100.143 Y125.893 E4.91442
G1 X99.435 Y125.882 E4.94386
G1 X98.763 Y125.828 E4.97189
G1 X98.367 Y125.778 E4.98848
G1 X97.701 Y125.626 E5.01688
G1 X96.972 Y125.371 E5.04899
G1 X96.322 Y125.057 E5.07901
G1 X95.676 Y124.649 E5.11077
G1 X95.219 Y124.298 E5.13473
G1 X94.849 Y123.942 E5.15608
G1 X94.588 Y123.674 E5.17163
G1 X94.204 Y123.207 E5.19676
G1 X93.913 Y122.764 E5.2188
G1 X93.536 Y122.091 E5.25087
G1 X93.313 Y121.524 E5.2762
G1 X93.164 Y121.075 E5.29587
G1 X93.015 Y120.426 E5.32355
G1 X92.926 Y119.614 E5.35752
G1 X92.91 Y119.33 E5.36934
G1 X92.901 Y118.636 E5.3982
G1 X92.899 Y116.091 E5.50401
G1 X92.9 Y113.94 E5.59343
G1 X92.913 Y113.108 E5.62803
G1 X92.922 Y112.907 E5.63639
G1 X92.999 Y110.144 E5.75131
G1 X92.999 Y107.445 E5.86352
G1 X92.926 Y104.81 E5.97312
G1 X92.91 Y104.394 E5.99042
G1 X92.901 Y103.666 E6.02069
G1 X92.9 Y98.985 E6.21531
G1 X92.91 Y98.301 E6.24375
G1 X92.964 Y97.636 E6.27148
G1 X93.013 Y97.24 E6.28807
G1 X93.145 Y96.626 E6.31418
G1 X93.427 Y95.818 E6.34976
G1 X93.669 Y95.291 E6.37387
G1 X93.957 Y94.816 E6.39697
G1 X94.424 Y94.155 E6.43062
G1 X94.804 Y93.75 E6.45371
G0 F2100 X95.09 Y94.029
G1 F1500 X95.4 Y93.726 E6.47173
G1 X95.802 Y93.394 E6.4934
G1 X96.233 Y93.112 E6.51482
G1 X96.539 Y92.926 E6.52971
G1 X97.096 Y92.657 E6.55542
G1 X97.837 Y92.398 E6.58806
G1 X98.324 Y92.279 E6.6089
G1 X99.198 Y92.178 E6.64548
G1 X99.461 Y92.163 E6.65643
G1 X100.181 Y92.154 E6.68637
G1 X134.851 Y92.153 E8.12778
G1 X135.559 Y92.164 E8.15722
G1 X136.198 Y92.216 E8.18387
G1 X136.581 Y92.265 E8.19992
G1 X137.173 Y92.4 E8.22517
G1 X137.891 Y92.651 E8.25679
G1 X138.467 Y92.929 E8.28338
G1 X139.103 Y93.329 E8.31462
G1 X139.579 Y93.706 E8.33986
G1 X140.12 Y94.245 E8.37161
G1 X140.478 Y94.683 E8.39513
G1 X140.929 Y95.395 E8.43017
G1 X141.159 Y95.852 E8.45144
G1 X141.343 Y96.349 E8.47348
G1 X141.453 Y96.681 E8.48802
G1 X141.587 Y97.265 E8.51293
G1 X141.676 Y98.053 E8.5459
G1 X141.69 Y98.313 E8.55672
G1 X141.699 Y99.005 E8.58549
G1 X141.7 Y103.693 E8.7804
G1 X141.69 Y104.391 E8.80942
G1 X141.679 Y104.68 E8.82145
G1 X141.6 Y107.47 E8.93749
G1 X141.6 Y110.192 E9.05065
G1 X141.676 Y112.896 E9.16312
G1 X141.69 Y113.256 E9.1781
G1 X141.699 Y113.977 E9.20807
G1 X141.7 Y118.598 E9.40019
G1 X141.69 Y119.343 E9.43117
G1 X141.643 Y119.939 E9.45603
G1 X141.59 Y120.363 E9.47379
G1 X141.455 Y120.956 E9.49908
G1 X141.202 Y121.682 E9.53104
G1 X140.934 Y122.242 E9.55685
G1 X140.547 Y122.862 E9.58724
G1 X140.096 Y123.427 E9.61729
G1 X139.603 Y123.917 E9.64619
G1 X139.198 Y124.252 E9.66804
G1 X138.47 Y124.715 E9.70391
G1 X137.902 Y124.99 E9.73015
G1 X137.16 Y125.249 E9.76282
G1 X136.626 Y125.375 E9.78563
G1 X135.801 Y125.468 E9.82015
G1 X135.538 Y125.483 E9.8311
G1 X134.819 Y125.492 E9.861
G1 X100.149 Y125.493 E11.30241
G1 X99.441 Y125.482 E11.33185
G1 X98.802 Y125.43 E11.3585
G1 X98.419 Y125.381 E11.37455
G1 X97.827 Y125.246 E11.3998
G1 X97.109 Y124.995 E11.43142
G1 X96.531 Y124.716 E11.4581
G1 X95.893 Y124.314 E11.48946
G1 X95.487 Y124.001 E11.51077
G1 X94.875 Y123.395 E11.54658
G1 X94.533 Y122.98 E11.56893
G1 X94.255 Y122.557 E11.58998
G1 X93.9 Y121.926 E11.62008
G1 X93.689 Y121.387 E11.64414
G1 X93.544 Y120.95 E11.66329
G1 X93.412 Y120.373 E11.68789
G1 X93.324 Y119.577 E11.72119
G1 X93.31 Y119.325 E11.73168
G1 X93.301 Y118.636 E11.76033
G1 X93.299 Y116.091 E11.86614
G1 X93.3 Y113.946 E11.95532
G1 X93.31 Y113.221 E11.98546
G1 X93.321 Y112.933 E11.99745
G1 X93.399 Y110.156 E12.11295
G1 X93.399 Y107.416 E12.22686
G1 X93.326 Y104.799 E12.33571
G1 X93.31 Y104.388 E12.35281
G1 X93.301 Y103.666 E12.38283
G1 X93.3 Y98.991 E12.57719
G1 X93.31 Y98.307 E12.60563
G1 X93.362 Y97.675 E12.63199
G1 X93.409 Y97.29 E12.64812
G1 X93.527 Y96.745 E12.6713
G1 X93.802 Y95.956 E12.70604
G1 X94.018 Y95.487 E12.72751
G1 X94.292 Y95.035 E12.74948
G1 X94.728 Y94.414 E12.78103
G1 X95.09 Y94.029 E12.803
G1 F2700 E7.803
G1 F600 Z0.5
;MESH:Thermistor SIlicon Mold.stl
G0 F2100 X97.3 Y101.753 Z0.5
;TYPE:WALL-OUTER
G1 F600 Z0.25
G1 F2700 E12.803
G1 F1200 X97.3 Y104.375 E12.91201
G1 X97.382 Y104.955 E12.93636
G1 X97.628 Y105.512 E12.96168
G1 X98.017 Y105.98 E12.98698
G1 X98.519 Y106.324 E13.01228
G1 X99.091 Y106.516 E13.03737
G1 X99.491 Y106.553 E13.05407
G1 X135.522 Y106.553 E14.55206
G1 X136.102 Y106.471 E14.57642
G1 X136.659 Y106.226 E14.60171
G1 X137.127 Y105.837 E14.62702
G1 X137.471 Y105.335 E14.65232
G1 X137.663 Y104.763 E14.6774
G1 X137.7 Y104.362 E14.69414
G1 X137.7 Y98.331 E14.94488
G1 X137.618 Y97.751 E14.96924
G1 X137.372 Y97.194 E14.99455
G1 X136.983 Y96.726 E15.01985
G1 X136.481 Y96.382 E15.04515
G1 X135.91 Y96.19 E15.0702
G1 X135.509 Y96.153 E15.08694
G1 X99.478 Y96.153 E16.58494
G1 X98.898 Y96.236 E16.6093
G1 X98.341 Y96.481 E16.63459
G1 X97.873 Y96.87 E16.6599
G1 X97.529 Y97.372 E16.6852
G1 X97.336 Y97.947 E16.71041
G1 X97.3 Y98.487 E16.73291
G1 X97.3 Y100.953 E16.83544
G1 X96.7 Y100.953 E16.86038
G1 X96.7 Y98.357 E16.96831
G1 X96.772 Y97.73 E16.99455
G1 X96.979 Y97.139 E17.02059
G1 X97.314 Y96.606 E17.04676
G1 X97.753 Y96.167 E17.07257
G1 X98.285 Y95.832 E17.09871
G1 X98.877 Y95.624 E17.1248
G1 X99.502 Y95.554 E17.15094
G1 X135.496 Y95.553 E18.6474
G1 X136.124 Y95.625 E18.67368
G1 X136.715 Y95.832 E18.69971
G1 X137.247 Y96.167 E18.72585
G1 X137.686 Y96.606 E18.75166
G1 X138.021 Y97.139 E18.77784
G1 X138.229 Y97.731 E18.80392
G1 X138.299 Y98.355 E18.83003
G1 X138.3 Y104.349 E19.07923
G1 X138.228 Y104.977 E19.10551
G1 X138.021 Y105.568 E19.13155
G1 X137.686 Y106.101 E19.15772
G1 X137.245 Y106.542 E19.18365
G1 X136.718 Y106.873 E19.20952
G1 X136.123 Y107.082 E19.23574
G1 X135.498 Y107.152 E19.26189
G1 X99.504 Y107.153 E20.75834
G1 X98.876 Y107.081 E20.78462
G1 X98.282 Y106.873 E20.81079
G1 X97.755 Y106.542 E20.83666
G1 X97.314 Y106.101 E20.86259
G1 X96.979 Y105.568 E20.88877
G1 X96.771 Y104.976 E20.91485
G1 X96.701 Y104.351 E20.941
G1 X96.7 Y101.753 E21.04901
G1 X97.3 Y101.753 E21.07396
G0 F2100 X97.3 Y101.953
G0 X96.999 Y102.091
;TYPE:SKIN
G1 F1200 X96.999 Y102.373 E21.08007
G1 X97.005 Y104.359 E21.12316
G1 X97.114 Y105.034 E21.138
G1 X97.684 Y106.169 E21.16555
G1 X98.814 Y106.734 E21.19296
G1 X99.781 Y106.852 E21.2141
G1 X135.417 Y106.85 E21.98724
G1 X136.376 Y106.678 E22.00838
G1 X137.092 Y106.262 E22.02634
G1 X137.614 Y105.653 E22.04374
G1 X137.945 Y104.852 E22.06255
G1 X137.998 Y103.208 E22.09823
G1 X137.996 Y98.398 E22.20259
G1 X137.907 Y97.743 E22.21693
G1 X137.739 Y97.292 E22.22737
G1 X137.291 Y96.562 E22.24595
G1 X136.597 Y96.15 E22.26346
G1 X135.759 Y95.878 E22.28258
G1 X133.188 Y95.852 E22.33836
G1 X116.5 Y95.853 E22.70041
G1 X99.534 Y95.857 E23.0685
G1 X98.587 Y96.041 E23.08943
G1 X97.881 Y96.466 E23.10731
G1 X97.364 Y97.081 E23.12474
G1 X97.048 Y97.896 E23.1437
G1 X96.999 Y99.545 E23.1795
G1 X96.987 Y100.664 E23.20377
G1 F2700 E18.20377
G1 F600 Z0.5
;MESH:Thermistor SIlicon Mold.stl(1)
G0 F2100 X136.123 Y122.022 Z0.5
;TYPE:WALL-OUTER
G1 F600 Z0.25
G1 F2700 E23.20377
G1 F1200 X135.498 Y122.092 E23.22992
G1 X99.504 Y122.093 E24.72638
G1 X98.876 Y122.021 E24.75266
G1 X98.285 Y121.814 E24.77869
G1 X97.753 Y121.479 E24.80483
G1 X97.314 Y121.04 E24.83064
G1 X96.979 Y120.507 E24.85682
G1 X96.771 Y119.915 E24.8829
G1 X96.701 Y119.291 E24.90901
G1 X96.7 Y116.693 E25.01702
G1 X97.3 Y116.693 E25.04197
G1 X97.3 Y119.315 E25.15098
G1 X97.382 Y119.895 E25.17533
G1 X97.628 Y120.452 E25.20064
G1 X98.017 Y120.92 E25.22595
G1 X98.519 Y121.264 E25.25125
G1 X99.091 Y121.456 E25.27633
G1 X99.491 Y121.493 E25.29303
G1 X135.522 Y121.493 E26.79103
G1 X136.102 Y121.41 E26.81539
G1 X136.659 Y121.165 E26.84068
G1 X137.127 Y120.776 E26.86599
G1 X137.471 Y120.274 E26.89129
G1 X137.663 Y119.702 E26.91637
G1 X137.7 Y119.302 E26.93307
G1 X137.7 Y113.271 E27.18381
G1 X137.618 Y112.689 E27.20825
G1 X137.372 Y112.134 E27.23349
G1 X136.983 Y111.666 E27.25879
G1 X136.481 Y111.321 E27.28411
G1 X135.909 Y111.13 E27.30918
G1 X135.509 Y111.093 E27.32589
G1 X99.478 Y111.093 E28.82388
G1 X98.898 Y111.175 E28.84823
G1 X98.341 Y111.42 E28.87353
G1 X97.873 Y111.809 E28.89883
G1 X97.529 Y112.311 E28.92413
G1 X97.336 Y112.886 E28.94935
G1 X97.3 Y113.427 E28.97189
G1 X97.3 Y115.893 E29.07442
G1 X96.7 Y115.893 E29.09936
G1 X96.7 Y113.297 E29.20729
G1 X96.772 Y112.669 E29.23357
G1 X96.979 Y112.078 E29.25961
G1 X97.314 Y111.545 E29.28578
G1 X97.755 Y111.104 E29.31171
G1 X98.282 Y110.773 E29.33758
G1 X98.877 Y110.564 E29.3638
G1 X99.502 Y110.494 E29.38995
G1 X135.496 Y110.493 E30.8864
G1 X136.124 Y110.565 E30.91268
G1 X136.718 Y110.773 E30.93885
G1 X137.245 Y111.104 E30.96472
G1 X137.686 Y111.545 E30.99065
G1 X138.021 Y112.078 E31.01683
G1 X138.229 Y112.67 E31.04291
G1 X138.299 Y113.295 E31.06906
G1 X138.3 Y119.289 E31.31826
G1 X138.228 Y119.916 E31.3445
G1 X138.021 Y120.507 E31.37054
G1 X137.686 Y121.04 E31.39671
G1 X137.247 Y121.479 E31.42252
G1 X136.715 Y121.814 E31.44866
G1 X136.123 Y122.022 E31.47474
G0 F2100 X135.924 Y122.044
G0 X135.887 Y121.745
;TYPE:SKIN
G1 F1200 X135.637 Y121.777 E31.48026
G1 X131.408 Y121.792 E31.57272
G1 X99.73 Y121.792 E32.26537
G1 X98.748 Y121.658 E32.28704
G0 F2100 X98.482 Y121.675
G1 F1200 X97.115 Y120.308 E32.32723
G0 F2100 X97.138 Y120.048
G1 F1200 X97.048 Y119.676 E32.33723
G1 X96.999 Y118.213 E32.37551
G1 X96.999 Y117.081 E32.40511
G1 F2700 E27.40511
G0 F2100 X96.901 Y116.977
G0 X97.247 Y119.933
G0 X97.923 Y121.024
G0 X99.062 Y121.594
G0 X135.531 Y121.632
G0 X136.733 Y121.285
G0 X137.596 Y120.336
G0 X137.839 Y113.262
G0 X137.491 Y112.06
G0 X136.543 Y111.196
G0 X99.469 Y110.954
G0 X98.267 Y111.3
G0 X97.404 Y112.249
G0 X97.029 Y115.693
G0 X96.961 Y115.629
G1 F2700 E32.40511
G1 F1200 X96.999 Y115.384 E32.41048
G1 X97.02 Y113.142 E32.45909
G1 X97.242 Y112.233 E32.47938
G1 X97.706 Y111.565 E32.49701
G1 X98.356 Y111.084 E32.51455
G1 X99.227 Y110.823 E32.53426
G1 X101.458 Y110.792 E32.58263
G1 X135.399 Y110.792 E33.3185
G1 X136.05 Y110.877 E33.33274
G1 X136.476 Y111.02 E33.34248
G1 X137.263 Y111.524 E33.36274
G1 X137.771 Y112.316 E33.38314
G1 X137.971 Y113.081 E33.40029
G1 X137.998 Y115.371 E33.44994
G1 X137.991 Y119.323 E33.53562
G1 X137.791 Y120.254 E33.55627
G1 X137.357 Y120.952 E33.57409
G1 X136.727 Y121.453 E33.59154
G1 X136.124 Y121.7 E33.60567
G0 F2100 X136.039 Y121.528
G1 F2700 E28.60567
G1 F600 Z0.5
;MESH:NONMESH
G0 F2100 X136.05 Y121.526 Z0.5
G0 X97.3 Y101.753
;TIME_ELAPSED:54.024081
;LAYER:1
M106 S255
;MESH:Thermistor SIlicon Mold.stl
G0 F3150 X97.3 Y101.753 Z0.7
;TYPE:WALL-OUTER
G1 F600 Z0.45
G1 F2700 E33.60567
G1 F1350 X97.301 Y104.39 E33.69337
G1 X97.382 Y104.956 E33.71239
G1 X97.628 Y105.512 E33.73261
G1 X98.017 Y105.98 E33.75285
G1 X98.519 Y106.324 E33.77309
G1 X99.091 Y106.516 E33.79316
G1 X99.491 Y106.553 E33.80652
G1 X135.537 Y106.552 E35.00542
G1 X136.103 Y106.471 E35.02443
G1 X136.659 Y106.226 E35.04464
G1 X137.127 Y105.837 E35.06488
G1 X137.471 Y105.335 E35.08512
G1 X137.663 Y104.763 E35.10519
G1 X137.7 Y104.362 E35.11859
G1 X137.699 Y98.316 E35.31968
G1 X137.618 Y97.75 E35.33869
G1 X137.372 Y97.194 E35.35892
G1 X136.983 Y96.726 E35.37916
G1 X136.481 Y96.382 E35.3994
G1 X135.91 Y96.19 E35.41943
G1 X135.509 Y96.153 E35.43283
G1 X99.463 Y96.154 E36.63172
G1 X98.897 Y96.236 E36.65074
G1 X98.341 Y96.481 E36.67095
G1 X97.873 Y96.87 E36.69119
G1 X97.529 Y97.372 E36.71143
G1 X97.336 Y97.947 E36.73161
G1 X97.3 Y98.54 E36.75137
G1 X97.3 Y100.953 E36.83162
G1 X96.7 Y100.953 E36.85158
G1 X96.701 Y98.338 E36.93855
G1 X96.772 Y97.731 E36.95888
G1 X96.979 Y97.139 E36.97974
G1 X97.314 Y96.606 E37.00068
G1 X97.753 Y96.167 E37.02133
G1 X98.285 Y95.832 E37.04224
G1 X98.876 Y95.625 E37.06307
G1 X99.514 Y95.553 E37.08442
G1 X135.514 Y95.554 E38.28179
G1 X136.123 Y95.625 E38.30218
G1 X136.715 Y95.832 E38.32304
G1 X137.247 Y96.167 E38.34395
G1 X137.686 Y96.606 E38.3646
G1 X138.021 Y97.139 E38.38553
G1 X138.228 Y97.73 E38.40636
G1 X138.3 Y98.367 E38.42768
G1 X138.299 Y104.367 E38.62724
G1 X138.228 Y104.976 E38.64764
G1 X138.021 Y105.568 E38.6685
G1 X137.686 Y106.101 E38.68943
G1 X137.245 Y106.542 E38.71018
G1 X136.718 Y106.873 E38.73088
G1 X136.124 Y107.081 E38.75181
G1 X135.486 Y107.153 E38.77316
G1 X99.486 Y107.152 E39.97053
G1 X98.877 Y107.081 E39.99092
G1 X98.282 Y106.873 E40.01189
G1 X97.755 Y106.542 E40.03258
G1 X97.314 Y106.101 E40.05333
G1 X96.979 Y105.568 E40.07427
G1 X96.772 Y104.977 E40.09509
G1 X96.702 Y104.367 E40.11552
G1 X96.7 Y103.956 E40.12919
G1 X96.7 Y101.753 E40.20246
G1 X97.3 Y101.753 E40.22241
G0 F3150 X97.3 Y101.953
G0 X96.999 Y102.12
;TYPE:SKIN
G1 F1350 X96.999 Y102.403 E40.2274
G1 X97.032 Y104.633 E40.26673
G1 X97.296 Y105.501 E40.28273
G1 X97.778 Y106.15 E40.29698
G1 X98.447 Y106.613 E40.31133
G1 X99.355 Y106.836 E40.32781
G1 X103.583 Y106.851 E40.40237
G1 X135.26 Y106.851 E40.96092
G1 X136.242 Y106.718 E40.97839
G0 F3150 X136.502 Y106.742
G1 F1350 X137.887 Y105.357 E41.01096
G0 F3150 X137.869 Y105.092
G1 F1350 X137.958 Y104.719 E41.01769
G1 X137.998 Y102.982 E41.04818
G1 X137.997 Y98.458 E41.12756
G1 X137.83 Y97.493 E41.14474
G1 X137.42 Y96.773 E41.15928
G1 X136.643 Y96.135 E41.17692
G1 X135.766 Y95.881 E41.19294
G1 X133.248 Y95.853 E41.23712
